X:1
T:James Gibb editions
T:Princes of the courts on high - Barnby
%%score [ ( 1 2 ) ( 3 4 ) ]
L:1/8
Q:1/4=84
M:4/4
K:A
V:1 treble nm="Midi_74"
V:2 treble 
V:3 bass nm="Midi_74"
V:4 bass 
V:1
"^Wells Street (77. 77)""^Princes of the courts on high""^Joseph Barnby\n(1838-96)" c2 c2 e2 A2 | %1
 B2 E2 c4 || c2 c2 B2 E2 | A2 GF E4 ||[M:4/4] E2 E2 F2 G2 | A2 A2 B4 || c2 c2 d2 c2 | B2 B2 A4 || %8
 A4 A4 |] %9
V:2
 E2 E2 E2 C2 | F2 E2 E4 || C2 FE ^D2 E2 | E2 ^D2 E4 ||[M:4/4] E2 E2 E2 E2 | E2 E2 E4 || %6
 E2 E2 D2 E2 | F2 ED C4 || F4 E4 |] %9
V:3
 A,2 A,2 A,2 A,2 | A,2 G,2 A,4 || E,2 A,G, F,2 E,2 | C2 B,A, G,4 ||[M:4/4] G,2 G,2 A,2 B,2 | %5
 A,2 C2 G,4 || A,2 A,2 A,2 A,2 | A,2 G,2 A,4 || A,4 C4 |] %9
V:4
 A,2 A,2 C,2 F,2 | D,2 E,2 A,,4 || A,,2 A,,2 B,,2 C,2 | F,2 B,,2 E,4 ||[M:4/4] E,2 E,2 E,2 D,2 | %5
 C,2 A,,2 E,4 || A,2 =G,2 F,2 E,2 | D,2- E,2 A,,4 || D,4 A,,4 |] %9

